!!!OTL: Zum Abschied (166), S. 361
!!!id: T0339
**kern
*clefG2
*k[f#]
*G:
{8g
=1
8g
4d
4d
=2
4g
8g
8g
=3
4e
8g
8e
=4
4d}
=5
{4d
=6
2g
=7
2a
=8
4b}
4r
=9
{4d
4d
=10
4cc
8dd
8cc
=11
4b
4a
=12
4b}
4r
=13
{4g
4b
=14
4a
4a
=15
4f#
8e
8f#
=16
4g}
4r
==
*-
!!!minrhy: 8
!!!meters: 2/4 ]  ZZ[4
!!!cut: Zum Abschied (166), S. 361
!!!reg: Luxemburg
!!!trd: Singendes Volk, Esch-Alzette, 1937 posth.
!!!rhy1:   X_X_  X_XX  X_XX  X_
!!!rhy2: X_  X__  X__  X_0_
!!!key: T0339  08  G 2/4 ]  ZZ[4
!!!mod: HEPTATONIK IONISCH]  AMBITUS[8
!!!kad: -5331
!!!akz: -51-6-5_123_-5433_12-71_
!!!fot: 'a__b__c__d__
!!!for: 'a__b__c__d__
!!!fok: '^__/__^a_~__
!! PHRAS[VORWIEGEND VOLLTAKTIG]
!!!fkt: Abschieds- und Wanderlieder, Heimatlieder,  Liebeslied
!!!bem: Altrier/Rippig, fff Katharina Weiler, hhh Nikolaus M&uuml;ller, 1908
!! THILL, Mathias:
!! PR[28] 2K[4] 2G[6] 3K[4] 3G[1] 4A[6] 4Ü[0] 5A[2] 6K[0] 6G[0]
!! 7K[0] 7G[0] 8A[4] MEHR[0] SI[25] ABS[109] SR[9] SP[16]
!! ST[20] 2k[14] 2g[21] 3k[3] 3g[6] 4d[5] 4ü[0] 5d[0] 6k[0] 6g[0]
!! 7k[0] 7g[0] 8d[0] mehr[0] si[48] dm[-23] sr[35] sp[13]
!! 1F[21] 2F[26] 3F[26] 4F[3] LF[0] 2P[21] 3P[4] 4P[0] TRI[0] DF[6] AB[112]
!! TF[0] U3K[0] U3[0] U4[0] U4Ü[0] U5[0] U6K[0] U6[0] U7K[0] U7[0]
!! N1[9] N2K[0] N2[4] N3K[0] N3[10] N4[11] N4Ü[0] N5[20] N6K[0] N6[10]
!!!n7k: 0] N7[10] O1[21] O2K[0] O2[5] O3K[0] O3[0] HÖ[0
!!!RNB: symbol: &uuml;  = u umlaut (UTF-8: Ã¼)
